Front-end-Projects/github_page/Images/DarkMode-on.svg

<svg width="47" height="47" viewBox="0 0 47 47" fill="none" xmlns="http://www.w3.org/2000/svg">
<circle cx="23.353" cy="23.353" r="23.353" fill="#D9D9D9"/>
<mask id="mask0_22_295" style="mask-type:alpha" maskUnits="userSpaceOnUse" x="11" y="11" width="25" height="24">
<path d="M20.999 11.2418C21.4114 11.1563 21.8237 11.0955 22.2303 11.0556C22.6483 11.0157 23.0625 10.9967 23.471 11.0005C23.7009 11.0024 23.8853 11.1905 23.8834 11.4204C23.8815 11.5971 23.7693 11.7472 23.6135 11.8061C21.875 12.4901 20.4841 13.7651 19.631 15.344C18.7912 16.8964 18.4719 18.7414 18.8539 20.6034L18.8558 20.6167C19.2909 22.7182 20.5335 24.4454 22.1961 25.5398C23.8568 26.6343 25.9335 27.0941 28.035 26.6647L28.0483 26.6628C29.5608 26.3493 30.8775 25.6196 31.9055 24.6145C32.9695 23.5752 33.7219 22.2432 34.0582 20.784C34.1095 20.5597 34.3338 20.421 34.5561 20.4723C34.7252 20.5122 34.8468 20.649 34.8734 20.8106C35.375 23.8887 34.6169 26.9041 32.9619 29.3058C31.3145 31.6961 28.776 33.4802 25.7074 34.1111C22.5495 34.7609 19.4277 34.0693 16.9329 32.4276C14.4362 30.7802 12.5684 28.1866 11.9186 25.0287C11.284 21.9449 11.9281 18.8953 13.4881 16.4309C15.0556 13.9589 17.5447 12.0721 20.5905 11.333C20.6494 11.3178 20.7178 11.3026 20.7919 11.2855H20.7938L20.999 11.2418Z" fill="black"/>
</mask>
<g mask="url(#mask0_22_295)">
<path d="M-1.72953 3.44897L-70.0687 7.81601C-81.3812 8.53891 -90.1866 17.925 -90.1866 29.2606V88.4061C-90.1866 100.274 -80.566 109.894 -68.6983 109.894H183.042C194.91 109.894 204.531 100.274 204.531 88.4061V26.4472C204.531 17.1162 198.509 8.85163 189.627 5.99253L184.936 4.48256C182.808 3.7977 180.588 3.44897 178.353 3.44897H155.146C152.127 3.44897 110.288 9.10159 105.425 9.10159C102.534 9.10159 90.168 11.0753 79.8894 12.8222C73.8833 13.8429 67.77 12.2458 62.768 8.76805C60.6823 7.31793 58.8151 6.12905 57.8847 5.79812C55.7383 5.03464 17.2475 3.91391 -1.72953 3.44897Z" fill="url(#paint0_linear_22_295)"/>
<path d="M3.0108 11.4681L-30.6306 17.698C-40.816 19.5842 -48.2061 28.4685 -48.2061 38.8271V64.5698C-48.2061 76.4374 -38.5855 86.0581 -26.7178 86.0581H196.846C208.714 86.0581 218.334 76.4374 218.334 64.5697V39.0257C218.334 31.0091 211.836 24.5104 203.819 24.5104C194.356 25.2694 175.116 26.8442 173.864 27.0719C172.611 27.2996 139.615 33.618 123.274 36.7488L103.383 40.7075C97.3862 41.9011 91.1556 40.4967 86.3199 36.7542C79.7492 31.6689 72.6018 25.9418 71.6873 24.5104C70.6668 22.9131 63.9885 18.9927 58.6553 16.072C56.0027 14.6194 53.05 13.8157 50.0311 13.6361L8.20003 11.1468C6.46366 11.0435 4.72116 11.1514 3.0108 11.4681Z" fill="url(#paint1_linear_22_295)"/>
<path d="M8.59689 30.7686L-19.1827 40.2877C-21.3197 41.02 -23.6328 41.0627 -25.7954 40.4097C-32.9513 38.2492 -40.0815 43.8472 -39.681 51.3113L-39.2049 60.1831C-38.7012 69.5693 -30.6838 76.7701 -21.2975 76.2664L178.048 65.5688C188.491 65.0084 196.503 56.0878 195.943 45.6443C195.515 37.6771 189.94 31.8948 181.962 31.77C171.861 31.612 159.56 31.6456 158.356 31.7102L130.751 33.1916C126.913 33.3976 123.203 34.6292 120.002 36.7585L107.291 45.2153C106.367 45.8307 105.395 46.3734 104.387 46.8386L88.3614 54.228C78.431 58.8071 66.61 55.2157 61.119 45.7589C57.9158 40.2421 55.2773 35.5121 54.9659 34.4083C54.6379 33.2454 52.1478 30.9128 49.2295 28.5135C44.3811 24.5276 37.8561 23.4076 31.7693 24.9389L8.59689 30.7686Z" fill="url(#paint2_linear_22_295)"/>
<path d="M-3.01791 26.6683L-30.9998 31.0131C-38.2814 32.1437 -43.6523 38.4129 -43.6523 45.7818C-43.6523 54.0361 -36.9609 60.7275 -28.7067 60.7275H189.976C195.853 60.7275 200.617 55.9632 200.617 50.0862C200.617 43.1878 194.153 38.115 187.446 39.7285C182.643 40.884 178.492 41.8684 177.706 42.0141C175.785 42.3699 138.714 36.5353 137.077 36.5353C135.768 36.5353 123.439 32.8828 117.439 31.0565L86.4773 26.1362C82.6764 25.5322 78.7952 25.6576 75.0412 26.5056L54.8951 31.0565L39.9841 34.309C33.3708 35.7516 26.465 34.9391 20.3672 32.001L14.7898 29.3138C9.25881 26.6488 3.04893 25.7263 -3.01791 26.6683Z" fill="#232323"/>
</g>
<defs>
<linearGradient id="paint0_linear_22_295" x1="57.172" y1="3.44897" x2="57.172" y2="109.894" gradientUnits="userSpaceOnUse">
<stop stop-color="#3D3D3D"/>
<stop offset="0.25" stop-color="#383838" stop-opacity="0"/>
</linearGradient>
<linearGradient id="paint1_linear_22_295" x1="85.0641" y1="10.9913" x2="85.0641" y2="86.0581" gradientUnits="userSpaceOnUse">
<stop stop-color="#3D3D3D"/>
<stop offset="0.1875" stop-color="#2F2F2F" stop-opacity="0"/>
</linearGradient>
<linearGradient id="paint2_linear_22_295" x1="76.6366" y1="20.6331" x2="79.3323" y2="70.8662" gradientUnits="userSpaceOnUse">
<stop stop-color="#3D3D3D"/>
<stop offset="0.192708" stop-color="#383838" stop-opacity="0"/>
</linearGradient>
</defs>
</svg>

<svg xmlns="http://www.w3.org/2000/svg" width="47" height="47" fill="none"><circle cx="23.353" cy="23.353" r="23.353" fill="#D9D9D9"/><mask id="a" width="25" height="24" x="11" y="11" maskUnits="userSpaceOnUse" style="mask-type:alpha"><path fill="#000" d="M20.999 11.242A11.697 11.697 0 0 1 23.471 11a.416.416 0 0 1 .142.806 7.76 7.76 0 0 0-3.982 3.538 7.747 7.747 0 0 0-.777 5.26l.002.013a7.756 7.756 0 0 0 3.34 4.923 7.755 7.755 0 0 0 5.839 1.125l.013-.002a7.741 7.741 0 0 0 3.858-2.049 7.818 7.818 0 0 0 2.152-3.83.415.415 0 0 1 .815.027 11.64 11.64 0 0 1-1.911 8.495 11.628 11.628 0 0 1-7.255 4.805c-3.158.65-6.28-.042-8.774-1.683a11.648 11.648 0 0 1-5.014-7.4 11.638 11.638 0 0 1 1.57-8.597 11.647 11.647 0 0 1 7.101-5.098c.06-.015.128-.03.202-.047h.002l.205-.044Z"/></mask><g mask="url(#a)"><path fill="url(#b)" d="m-1.73 3.449-68.339 4.367c-11.312.723-20.118 10.109-20.118 21.445v59.145c0 11.868 9.621 21.488 21.489 21.488h251.74c11.868 0 21.489-9.62 21.489-21.488V26.447a21.488 21.488 0 0 0-14.904-20.454l-4.691-1.51a21.483 21.483 0 0 0-6.583-1.034h-23.207c-3.019 0-44.858 5.653-49.721 5.653-2.891 0-15.257 1.973-25.536 3.72-6.006 1.02-12.119-.576-17.121-4.054-2.086-1.45-3.953-2.639-4.883-2.97C55.738 5.035 17.247 3.914-1.73 3.45Z"/><path fill="url(#c)" d="m3.01 11.468-33.64 6.23c-10.186 1.886-17.576 10.77-17.576 21.13V64.57c0 11.867 9.62 21.488 21.488 21.488h223.564c11.868 0 21.488-9.62 21.488-21.488V39.026c0-8.017-6.498-14.516-14.515-14.516-9.463.76-28.703 2.334-29.955 2.562-1.253.228-34.249 6.546-50.59 9.677l-19.891 3.959c-5.997 1.193-12.227-.211-17.063-3.954-6.57-5.085-13.718-10.812-14.633-12.244-1.02-1.597-7.698-5.517-13.032-8.438-2.652-1.453-5.605-2.256-8.624-2.436L8.2 11.146a21.491 21.491 0 0 0-5.19.322Z"/><path fill="url(#d)" d="m8.597 30.769-27.78 9.519c-2.137.732-4.45.775-6.612.122-7.156-2.16-14.286 3.437-13.886 10.901l.476 8.872c.504 9.386 8.521 16.587 17.907 16.083L178.048 65.57c10.443-.56 18.455-9.481 17.895-19.925-.428-7.967-6.003-13.75-13.981-13.874-10.101-.158-22.402-.124-23.606-.06l-27.605 1.482a21.482 21.482 0 0 0-10.749 3.566l-12.711 8.457a21.47 21.47 0 0 1-2.904 1.624l-16.026 7.389c-9.93 4.58-21.751.988-27.242-8.47-3.203-5.516-5.842-10.246-6.153-11.35-.328-1.163-2.818-3.495-5.736-5.895-4.849-3.985-11.374-5.105-17.46-3.574l-23.173 5.83Z"/><path fill="#232323" d="M-3.018 26.668-31 31.013a14.946 14.946 0 0 0-12.652 14.769c0 8.254 6.691 14.946 14.945 14.946h218.683c5.877 0 10.641-4.765 10.641-10.642 0-6.898-6.464-11.971-13.171-10.358-4.803 1.156-8.954 2.14-9.74 2.286-1.921.356-38.992-5.479-40.629-5.479-1.309 0-13.638-3.652-19.638-5.478l-30.962-4.92a30.312 30.312 0 0 0-11.436.369l-20.146 4.55-14.91 3.253a30.31 30.31 0 0 1-19.618-2.308l-5.577-2.687a30.31 30.31 0 0 0-17.808-2.646Z"/></g><defs><linearGradient id="b" x1="57.172" x2="57.172" y1="3.449" y2="109.894" gradientUnits="userSpaceOnUse"><stop stop-color="#3D3D3D"/><stop offset=".25" stop-color="#383838" stop-opacity="0"/></linearGradient><linearGradient id="c" x1="85.064" x2="85.064" y1="10.991" y2="86.058" gradientUnits="userSpaceOnUse"><stop stop-color="#3D3D3D"/><stop offset=".188" stop-color="#2F2F2F" stop-opacity="0"/></linearGradient><linearGradient id="d" x1="76.637" x2="79.332" y1="20.633" y2="70.866" gradientUnits="userSpaceOnUse"><stop stop-color="#3D3D3D"/><stop offset=".193" stop-color="#383838" stop-opacity="0"/></linearGradient></defs></svg>
